src/lib/packages/icons/src/assets/filled/palette.svg

<svg width="24" height="24" viewBox="0 0 24 24" fill="none" xmlns="http://www.w3.org/2000/svg">
<path d="M21.82 9.78C20.92 5.3 16.63 2 11.91 2C6.43997 2 2 6.48 2 12C2 17.52 6.53 22 12 22C13.87 22 14.06 20.4 12.28 19.4C10.97 18.66 11.02 16.44 14.23 16.44H16.46C18.68 16.44 22.92 15.33 21.82 9.78ZM7.02002 15.25C6.33002 15.25 5.77002 14.69 5.77002 14C5.77002 13.31 6.32001 12.75 7.01001 12.75H7.02002C7.71002 12.75 8.27002 13.31 8.27002 14C8.27002 14.69 7.71002 15.25 7.02002 15.25ZM7.02002 11.25C6.33002 11.25 5.77002 10.69 5.77002 10C5.77002 9.31 6.32001 8.75 7.01001 8.75H7.02002C7.71002 8.75 8.27002 9.31 8.27002 10C8.27002 10.69 7.71002 11.25 7.02002 11.25ZM10.02 8.25C9.33002 8.25 8.77002 7.69 8.77002 7C8.77002 6.31 9.32001 5.75 10.01 5.75H10.02C10.71 5.75 11.27 6.31 11.27 7C11.27 7.69 10.71 8.25 10.02 8.25ZM14.02 8.25C13.33 8.25 12.77 7.69 12.77 7C12.77 6.31 13.32 5.75 14.01 5.75H14.02C14.71 5.75 15.27 6.31 15.27 7C15.27 7.69 14.71 8.25 14.02 8.25ZM17.02 11.25C16.33 11.25 15.77 10.69 15.77 10C15.77 9.31 16.32 8.75 17.01 8.75H17.02C17.71 8.75 18.27 9.31 18.27 10C18.27 10.69 17.71 11.25 17.02 11.25Z" fill="currentColor"/>
</svg>

<svg xmlns="http://www.w3.org/2000/svg" width="24" height="24" fill="none"><path fill="currentColor" d="M21.82 9.78C20.92 5.3 16.63 2 11.91 2 6.44 2 2 6.48 2 12s4.53 10 10 10c1.87 0 2.06-1.6.28-2.6-1.31-.74-1.26-2.96 1.95-2.96h2.23c2.22 0 6.46-1.11 5.36-6.66Zm-14.8 5.47c-.69 0-1.25-.56-1.25-1.25s.55-1.25 1.24-1.25h.01a1.25 1.25 0 0 1 0 2.5Zm0-4c-.69 0-1.25-.56-1.25-1.25s.55-1.25 1.24-1.25h.01a1.25 1.25 0 0 1 0 2.5Zm3-3c-.69 0-1.25-.56-1.25-1.25s.55-1.25 1.24-1.25h.01a1.25 1.25 0 0 1 0 2.5Zm4 0c-.69 0-1.25-.56-1.25-1.25s.55-1.25 1.24-1.25h.01a1.25 1.25 0 0 1 0 2.5Zm3 3c-.69 0-1.25-.56-1.25-1.25s.55-1.25 1.24-1.25h.01a1.25 1.25 0 0 1 0 2.5Z"/></svg>
